components/Icon/icons/chevronDown.svg

<svg width="100%" height="100%" viewBox="0 0 50 50" fill="currentColor" xmlns="http://www.w3.org/2000/svg">
<path fill-rule="evenodd" clip-rule="evenodd" d="M5.14386 14.5189C5.289 14.3733 5.46142 14.2579 5.65125 14.1791C5.84108 14.1004 6.04458 14.0598 6.25011 14.0598C6.45563 14.0598 6.65913 14.1004 6.84896 14.1791C7.03879 14.2579 7.21122 14.3733 7.35636 14.5189L25.0001 32.1657L42.6439 14.5189C42.7891 14.3736 42.9616 14.2583 43.1514 14.1797C43.3412 14.1011 43.5447 14.0606 43.7501 14.0606C43.9556 14.0606 44.159 14.1011 44.3488 14.1797C44.5386 14.2583 44.7111 14.3736 44.8564 14.5189C45.0016 14.6641 45.1169 14.8366 45.1955 15.0264C45.2741 15.2162 45.3146 15.4197 45.3146 15.6251C45.3146 15.8306 45.2741 16.034 45.1955 16.2238C45.1169 16.4136 45.0016 16.5861 44.8564 16.7314L26.1064 35.4814C25.9612 35.6269 25.7888 35.7423 25.599 35.8211C25.4091 35.8999 25.2056 35.9404 25.0001 35.9404C24.7946 35.9404 24.5911 35.8999 24.4013 35.8211C24.2114 35.7423 24.039 35.6269 23.8939 35.4814L5.14386 16.7314C4.99835 16.5862 4.8829 16.4138 4.80413 16.224C4.72536 16.0341 4.68481 15.8306 4.68481 15.6251C4.68481 15.4196 4.72536 15.2161 4.80413 15.0263C4.8829 14.8364 4.99835 14.664 5.14386 14.5189V14.5189Z" fill="currentColor"/>
</svg>

<svg xmlns="http://www.w3.org/2000/svg" width="100%" height="100%" viewBox="0 0 50 50" fill="currentColor" xmlns:v="https://vecta.io/nano"><path fill-rule="evenodd" d="M5.144 14.519a1.56 1.56 0 0 1 .507-.34c.19-.079.393-.119.599-.119s.409.041.599.119a1.56 1.56 0 0 1 .507.34L25 32.166l17.644-17.647c.145-.145.318-.261.508-.339s.393-.119.599-.119.409.04.599.119.362.194.508.339.261.318.339.508.119.393.119.599-.041.409-.119.599-.194.362-.339.508l-18.75 18.75c-.145.145-.318.261-.507.34s-.393.119-.599.119a1.56 1.56 0 0 1-1.106-.459l-18.75-18.75c-.146-.145-.261-.318-.34-.507s-.119-.393-.119-.599a1.56 1.56 0 0 1 .459-1.106h0z" fill="currentColor"/></svg>
